!!!COM: Arnold (Franz Walter) Schoenberg [Schönberg]
!!!OTL: [T195_Sch-w10p101-102m36-44]
**kern	**dynam	**kern	**dynam	**kern	**text	**dynam
*grp:A	*	*grp:A	*	*grp:B	*	*
*part2	*part2	*part2	*part2	*part1	*	*
*staff3	*staff3	*staff2	*staff2	*staff1	*	*
*I"Piano	*	*I"Piano	*	*I"Voice	*	*
*clefF4	*	*clefG2	*	*clefF4	*	*
*k[b-]	*	*k[b-]	*	*k[b-]	*	*
*M6/4	*	*M6/4	*	*M6/4	*	*
=1	=1	=1	=1	=1	=1	=1
!!LO:TX:a:B:t=Etwas bewegter
(8CC^L	.	(8C<^L	f	2%3r	.	.
8DD-X	.	8D-<	.	.	.	.
8FF)	.	8F<)	.	.	.	.
(8EE^	.	(8E<^	.	.	.	.
8GGn	.	8Gn<	.	.	.	.
8BB-XJ)	.	8B-X<J)	.	.	.	.
(8AA^L	.	(>8A<^L	.	.	.	.
8BB-	.	8B-<	<	.	.	.
8D-X)	.	8d-X)	.	.	.	.
(<8C^<	.	(>8c^>	.	.	.	.
8E	.	8e	.	.	.	.
8GJ)	.	8gJ)	[[	.	.	.
=2	=2	=2	=2	=2	=2	=2
4An	.	(8f^L 8ff	p <	8r	.	.
.	.	8dd-X	.	8A	Und	p
*grp:B	*	*	*	*	*	*
8r	.	8cc)	.	4G#X	wenn	.
8A-X	.	(8gn^ 8ggn	.	.	.	.
12cL	.	8dd-	.	4Fn	die	.
12A-	.	.	.	.	.	.
.	.	8ccJ)	.	.	.	.
12GJ	.	.	.	.	.	.
4G-X	.	(8a-X^L 8aa-X	.	4.C#X	Son-	<
.	.	8ff-X	.	.	.	.
8r	.	8ee-X)	.	.	.	.
8G-	.	(8b-^ 8bb-	.	8D	-ne	.
12B-L	.	8ff-	.	4F	im	.
12G-	.	.	.	.	.	.
.	.	8ee-J)	.	.	.	.
12FnJ	.	.	.	.	.	[
=3	=3	=3	=3	=3	=3	=3
4En	.	(8cc^L 8aa-X 8ccc	.	4.cn	Mit-	>
.	.	8ddd-X	.	.	.	.
*grp:A	*	*	*	*	*	*
4r	.	8ddn)	.	.	.	.
.	.	(8dd^ 8bb- 8dddn	.	8A-X	-tag	.
[4D-X^ [4d-X	.	8eee-X	.	4Gn	steht,	]
.	.	8eenJ)	.	.	.	.
4D-] 4d-]	.	(8ff^L 8bb- 8ddd-X 8fff	.	4r	.	.
.	.	8ggg-X	.	.	.	.
4BB- 4B-	.	8ee)	.	4r	.	.
.	.	(8bb-^ 8ddd- 8ggg-	.	.	.	.
4GG-X 4G-X	.	8ee	.	(8AnL	so	f
.	.	8b-XJ)	[	8B-XJ)	.	.
=4	=4	=4	=4	=4	=4	=4
*grp:A	*	*	*	*	*	*
4FFn 4Fn	.	(8dn^L 8b-X 8cc#X	f	2dn	wird	.
.	.	8dd	.	.	.	.
2AA-X 2A-X	.	8c#X)	.	.	.	.
.	.	(8a-X^ 8ccn	.	.	.	.
.	.	8Bn	.	(8A#XL	die	.
.	.	8gnJ 8bn)	.	8BnJ)	.	.
2FF-X 2F-X	.	(8B-X^L 8f#X 8an	.	4.d	Bre-	.
.	.	8b-X	.	.	.	.
.	.	8An)	.	.	.	.
.	.	(8f-X^ 8a-X	.	8A#X	-sche	.
4EE-X 4E-X	.	8Gn	.	4Bn	ge-	.
.	.	8e-XJ 8gn)	.	.	.	.
=5	=5	=5	=5	=5	=5	=5
(<8CC#X^<L	.	8dnL 8f#X	f	2dn	-legt	.
8DDn	.	8F#XJ	.	.	.	.
8FF#X)	.	8r	.	.	.	.
(8EE#X^	.	(8E#<^>L	.	.	.	.
8GG#X	.	8G#<	.	4E-X	sein;	.
8BBnJ)	.	8Bn<J)	.	.	.	.
(8AA#X^L	.	(8A#<^>L	.	2.r	.	.
8BB	.	8B<	.	.	.	.
8D#X)	.	8d#X)	.	.	.	.
(<8Dn^<	.	(>8dn^>^>	.	.	.	.
8Fn	.	8fn	.	.	.	.
8A-XJ)	.	8a-XJ)	.	.	.	.
=6	=6	=6	=6	=6	=6	=6
4cn	.	(8aa-X^L 8aaa-X	p	8r	.	.
.	.	8fff-X	.	8C	und	p
*grp:B	*	*	*	*	*	*
8r	.	8eee-X)	.	4D-X	wenn	.
8B-X	.	(8ggn^ 8gggn	.	.	.	.
12dnL	.	8dddn	.	4F	die	.
12B-X	.	.	.	.	.	.
.	.	8ccc#XJ)	.	.	.	.
12AnJ	.	.	.	.	.	.
4A-X	.	(8gg-X^L 8ggg-X	.	4.A-X	Son-	.
.	.	8cccn	.	.	.	.
8r	.	8bbn)	.	.	.	.
8Gn	.	(8een^ 8eeen	.	8An	-ne	.
12B-XL	.	8bb-X	.	4c	zur	.
12G-X	.	.	.	.	.	.
.	.	8aanJ)	.	.	.	.
12FnJ	.	.	.	.	.	.
!!linebreak:original
=7	=7	=7	=7	=7	=7	=7
*	*	*^	*	*	*	*
4E-X	.	(8ff#X^L 8fff#X	2.ryy	f	4.Bn	Rü-	.
.	.	8aan	.	.	.	.	.
*grp:A	*	*	*	*	*	*	*
4r	.	8gg#X)	.	.	.	.	.
.	.	(8een^ 8eeen	.	.	8Gn	-ste	.
[(4C^ [4c	.	8aa	.	.	4F#X	geht,	.
.	.	8gg#J)	.	.	.	.	.
*	*	*v	*v	*	*	*	*
8CL] 8c]	.	4dd 4ddd	.	4r	.	.
8An	.	.	.	.	.	.
8G#X)	.	4r	.	4r	.	.
(8AA^ 8A	.	.	.	.	.	.
*	*	*^	*	*	*	*
!	!	!LO:TX:b:t=pesante	!	!	!	!	!LO:DY:rj
8Fn	.	8ffnL 8fffn	4aan	<	8fn	wird	f
8E-XJ)	.	8ee-XJ 8eee-X	.	.	8e-X	die	.
*	*	*v	*v	*	*	*	*
=8	=8	=8	=8	=8	=8	=8
*grp:B	*	*	*	*	*	*
8GGnL 8E-X	.	(8ffn^L 8ccc#X	.	4.c#X	Mau-	.
8Bn	.	8aan	.	.	.	.
8AA 8F	.	8ggn)	.	.	.	.
8c#X	.	(8ee-X 8bbn	.	8Bn	-er	.
8BBn 8Gn	.	8aa	.	4A	vom	.
8e-XJ	.	8cc#XJ 8ffn)	.	.	.	.
8C#XL 8A	.	(8ee-XL	.	4.Gn	Bo-	.
8fn	.	8bn 8gg	.	.	.	.
8E-X 8Bn	.	8ff	.	.	.	.
8g	.	8anJ 8cc#X)	.	8Fn	-den	.
8Fn 8c#X	.	8r	[	4E-X	ge-	.
8anJ	.	8aan 8ccc#X 8fffn 8aaan	ff	.	.	.
=9	=9	=9	=9	=9	=9	=9
*grp:A	*	*	*	*	*	*
8r	.	4gg#X 4cccn 4eee 4ggg#X	>	2en	-fegt	.
8GGG#X 8GG#X	.	.	.	.	.	.
4AAA 4AA	.	4.ggn^ 4.ccc 4.eee 4.gggn	.	.	.	.
4.BBB#X^ 4.BB#X	.	.	.	4A	sein.	.
.	.	8ff#X 8ddd#X 8fff#X	.	.	.	.
.	.	4ffn 4dddn 4fffn	.	2.r	.	.
8CC#X 8C#X	<	.	.	.	.	.
4DD 4D	.	4.ee^ 4.ff#X 4.cccn 4.eee	.	.	.	.
[4FF#X^ [4F#X	.	.	.	.	.	.
.	[[	8ee-X 8ccc 8eee-X	]]	.	.	.
=	=	=	=	=	=	=
*-	*-	*-	*-	*-	*-	*-
!!!system-decoration: s1[({(s2,s3)})]
!!!RDF**kern: < = below
!!!RDF**kern: > = above
!!!EED:Jason Lee
!!!EEV:2022/01/11
